src/pos-icons/eye-plus.svg

<svg height="24" viewBox="0 0 24 24" width="24" xmlns="http://www.w3.org/2000/svg"><path d="m12 4.5c-5 0-9.27 3.11-11 7.5 1.73 4.39 6 7.5 11 7.5.36 0 .72 0 1.08-.05-.05-.32-.08-.63-.08-.95 0-.56.08-1.12.24-1.66-.41.1-.82.16-1.24.16a5 5 0 0 1 -5-5 5 5 0 0 1 5-5 5 5 0 0 1 5 5c0 .29-.03.59-.08.88.66-.25 1.37-.38 2.08-.38 1.17 0 2.31.34 3.29 1 .27-.5.51-1 .71-1.5-1.73-4.39-6-7.5-11-7.5m0 4.5a3 3 0 0 0 -3 3 3 3 0 0 0 3 3 3 3 0 0 0 3-3 3 3 0 0 0 -3-3m6 5.5v3h-3v2h3v3h2v-3h3v-2h-3v-3z"/></svg>

<?xml version="1.0" encoding="UTF-8"?><!DOCTYPE svg PUBLIC "-//W3C//DTD SVG 1.1//EN" "http://www.w3.org/Graphics/SVG/1.1/DTD/svg11.dtd"><svg xmlns="http://www.w3.org/2000/svg" xmlns:xlink="http://www.w3.org/1999/xlink" version="1.1" id="mdi-eye-plus" width="24" height="24" viewBox="0 0 24 24"><path d="M12,4.5C7,4.5 2.73,7.61 1,12C2.73,16.39 7,19.5 12,19.5C12.36,19.5 12.72,19.5 13.08,19.45C13.03,19.13 13,18.82 13,18.5C13,17.94 13.08,17.38 13.24,16.84C12.83,16.94 12.42,17 12,17A5,5 0 0,1 7,12A5,5 0 0,1 12,7A5,5 0 0,1 17,12C17,12.29 16.97,12.59 16.92,12.88C17.58,12.63 18.29,12.5 19,12.5C20.17,12.5 21.31,12.84 22.29,13.5C22.56,13 22.8,12.5 23,12C21.27,7.61 17,4.5 12,4.5M12,9A3,3 0 0,0 9,12A3,3 0 0,0 12,15A3,3 0 0,0 15,12A3,3 0 0,0 12,9M18,14.5V17.5H15V19.5H18V22.5H20V19.5H23V17.5H20V14.5H18Z" /></svg>
